svgs/light/star-exclamation.svg

<svg xmlns="http://www.w3.org/2000/svg" viewBox="0 0 576 512"><!--! Font Awesome Pro 6.4.2 by @fontawesome - https://fontawesome.com License - https://fontawesome.com/license (Commercial License) Copyright 2023 Fonticons, Inc. --><path d="M202.4 186.5L65 206.8l99.8 98.8c7.4 7.3 10.8 17.8 9 28.1L150.2 473.2l122.6-65.5c9.4-5 20.7-5 30.2 0l122.6 65.5L402.1 333.7c-1.7-10.3 1.6-20.7 9-28.1l99.8-98.8L373.4 186.5c-10.5-1.5-19.5-8.2-24.1-17.7L287.9 42.3 226.5 168.8c-4.6 9.5-13.6 16.1-24.1 17.7zM450.2 507.4c-7.4 5.3-17.3 6-25.3 1.7l-137-73.2L151 509.1c-8.1 4.3-17.9 3.7-25.3-1.7s-11.2-14.5-9.7-23.5l26.2-155.6L31.1 218.2c-6.5-6.4-8.7-15.9-5.9-24.5s10.3-14.9 19.3-16.3l153.2-22.6L266.3 13.5C270.4 5.2 278.7 0 287.9 0s17.6 5.2 21.6 13.5l68.6 141.3 153.2 22.6c9 1.3 16.5 7.6 19.3 16.3s.5 18.1-5.9 24.5L433.6 328.4l26.2 155.6c1.5 9-2.2 18.1-9.7 23.5zM288 128c8.8 0 16 7.2 16 16V272c0 8.8-7.2 16-16 16s-16-7.2-16-16V144c0-8.8 7.2-16 16-16zM264 352a24 24 0 1 1 48 0 24 24 0 1 1 -48 0z"/></svg>

<svg xmlns="http://www.w3.org/2000/svg" viewBox="0 0 576 512"><!--! Font Awesome Pro 6.1.1 by @fontawesome - https://fontawesome.com License - https://fontawesome.com/license (Commercial License) Copyright 2022 Fonticons, Inc. --><path d="M287.1 127.1C296.8 127.1 304 135.2 304 143.1V271.1C304 280.8 296.8 287.1 287.1 287.1C279.2 287.1 271.1 280.8 271.1 271.1V143.1C271.1 135.2 279.2 127.1 287.1 127.1zM312 352C312 365.3 301.3 376 287.1 376C274.7 376 263.1 365.3 263.1 352C263.1 338.7 274.7 328 287.1 328C301.3 328 312 338.7 312 352zM450.2 507.4C442.8 512.7 432.1 513.4 424.9 509.1L287.9 435.9L150.1 509.1C142.9 513.4 133.1 512.7 125.6 507.4C118.2 502.1 114.5 492.9 115.1 483.9L142.2 328.4L31.11 218.2C24.65 211.9 22.36 202.4 25.2 193.7C28.03 185.1 35.5 178.8 44.49 177.5L197.7 154.8L266.3 13.52C270.4 5.249 278.7 0 287.9 0C297.1 0 305.5 5.25 309.5 13.52L378.1 154.8L531.4 177.5C540.4 178.8 547.8 185.1 550.7 193.7C553.5 202.4 551.2 211.9 544.8 218.2L433.6 328.4L459.9 483.9C461.4 492.9 457.7 502.1 450.2 507.4H450.2zM64.99 206.8L164.8 305.6C172.1 312.9 175.5 323.4 173.8 333.7L150.2 473.2L272.8 407.7C282.3 402.6 293.6 402.6 303 407.7L425.6 473.2L402.1 333.7C400.3 323.4 403.7 312.9 411.1 305.6L510.9 206.8L373.4 186.5C362.1 184.9 353.1 178.3 349.3 168.8L287.9 42.32L226.5 168.8C221.9 178.3 212.9 184.9 202.4 186.5L64.99 206.8z"/></svg>
